(G-CODE GENERATED BY FLATCAM v8.908 - www.flatcam.org - Version Date: 2019/02/9)

(Name: pickit3_icsp_adapter-F.Cu.gbr_iso_cnc)
(Type: G-code from Geometry)
(Units: MM)

(Created on Sunday, 05 May 2019 at 20:51)

(TOOL DIAMETER: 0.18 mm)

(Feedrate: 200.0 mm/min)
(Feedrate_Z: 100.0 mm/min)
(Feedrate rapids 200.0 mm/min)

(Z_Cut: -0.0933 mm)
(Z_Move: 2.54 mm)
(Z Toolchange: 25.4 mm)
(X,Y Toolchange: 0.0000, 0.0000 mm)
(Z Start: None mm)
(Z End: 25.0 mm)
(Steps per circle: 64)
(Postprocessor Geometry: grbl_11)

(X range:   -0.1232 ...   20.1032  mm)
(Y range:  -15.6582 ...   -0.8518  mm)

(Spindle Speed: 20000 RPM)


G21
G90
G94
G17

G01 F200.00
G00 Z2.5400

M03 S20000
G4 P1.0
G00 X0.0700 Y-5.6230
G01 F100.00
G01 Z-0.0933
G01 F200.00
G01 X10.0800 Y-5.6232 F200.00
G01 X10.0900 Y-5.6230 F200.00
G01 X10.1128 Y-5.6205 F200.00
G01 X10.1353 Y-5.6155 F200.00
G01 X10.1571 Y-5.6080 F200.00
G01 X10.1778 Y-5.5981 F200.00
G01 X10.1973 Y-5.5859 F200.00
G01 X10.2153 Y-5.5716 F200.00
G01 X10.2316 Y-5.5553 F200.00
G01 X10.2459 Y-5.5373 F200.00
G01 X10.2581 Y-5.5178 F200.00
G01 X10.2680 Y-5.4971 F200.00
G01 X10.2728 Y-5.4833 F200.00
G01 X15.8750 Y-5.4833 F200.00
G01 X15.9202 Y-5.4808 F200.00
G01 X15.9647 Y-5.4732 F200.00
G01 X16.0082 Y-5.4607 F200.00
G01 X16.0396 Y-5.4480 F200.00
G01 X16.0601 Y-5.4381 F200.00
G01 X16.0896 Y-5.4215 F200.00
G01 X16.1173 Y-5.4022 F200.00
G01 X16.1352 Y-5.3880 F200.00
G01 X16.1561 Y-5.3691 F200.00
G01 X18.5672 Y-2.9582 F200.00
G01 X19.9100 Y-2.9580 F200.00
G01 X19.9328 Y-2.9555 F200.00
G01 X19.9553 Y-2.9505 F200.00
G01 X19.9771 Y-2.9430 F200.00
G01 X19.9978 Y-2.9331 F200.00
G01 X20.0173 Y-2.9209 F200.00
G01 X20.0353 Y-2.9066 F200.00
G01 X20.0516 Y-2.8903 F200.00
G01 X20.0659 Y-2.8723 F200.00
G01 X20.0781 Y-2.8528 F200.00
G01 X20.0880 Y-2.8321 F200.00
G01 X20.0955 Y-2.8103 F200.00
G01 X20.1005 Y-2.7879 F200.00
G01 X20.1030 Y-2.7650 F200.00
G01 X20.1032 Y-2.7550 F200.00
G01 X20.1032 Y-1.0550 F200.00
G01 X20.1030 Y-1.0450 F200.00
G01 X20.1005 Y-1.0221 F200.00
G01 X20.0955 Y-0.9997 F200.00
G01 X20.0880 Y-0.9779 F200.00
G01 X20.0781 Y-0.9572 F200.00
G01 X20.0659 Y-0.9377 F200.00
G01 X20.0516 Y-0.9197 F200.00
G01 X20.0353 Y-0.9034 F200.00
G01 X20.0173 Y-0.8891 F200.00
G01 X19.9978 Y-0.8769 F200.00
G01 X19.9771 Y-0.8670 F200.00
G01 X19.9553 Y-0.8595 F200.00
G01 X19.9328 Y-0.8545 F200.00
G01 X19.9100 Y-0.8520 F200.00
G01 X18.1900 Y-0.8520 F200.00
G01 X18.1672 Y-0.8545 F200.00
G01 X18.1447 Y-0.8595 F200.00
G01 X18.1229 Y-0.8670 F200.00
G01 X18.1022 Y-0.8769 F200.00
G01 X18.0827 Y-0.8891 F200.00
G01 X18.0647 Y-0.9034 F200.00
G01 X18.0484 Y-0.9197 F200.00
G01 X18.0341 Y-0.9377 F200.00
G01 X18.0219 Y-0.9572 F200.00
G01 X18.0120 Y-0.9779 F200.00
G01 X18.0045 Y-0.9997 F200.00
G01 X17.9995 Y-1.0221 F200.00
G01 X17.9970 Y-1.0450 F200.00
G01 X17.9968 Y-2.3878 F200.00
G01 X15.7079 Y-4.6767 F200.00
G01 X10.2728 Y-4.6767 F200.00
G01 X10.2680 Y-4.6629 F200.00
G01 X10.2581 Y-4.6422 F200.00
G01 X10.2459 Y-4.6227 F200.00
G01 X10.2316 Y-4.6047 F200.00
G01 X10.2153 Y-4.5884 F200.00
G01 X10.1973 Y-4.5741 F200.00
G01 X10.1778 Y-4.5619 F200.00
G01 X10.1571 Y-4.5520 F200.00
G01 X10.1353 Y-4.5445 F200.00
G01 X10.1128 Y-4.5395 F200.00
G01 X10.0900 Y-4.5370 F200.00
G01 X10.0800 Y-4.5368 F200.00
G01 X0.0700 Y-4.5370 F200.00
G01 X0.0472 Y-4.5395 F200.00
G01 X0.0247 Y-4.5445 F200.00
G01 X0.0029 Y-4.5520 F200.00
G01 X-0.0178 Y-4.5619 F200.00
G01 X-0.0373 Y-4.5741 F200.00
G01 X-0.0553 Y-4.5884 F200.00
G01 X-0.0716 Y-4.6047 F200.00
G01 X-0.0859 Y-4.6227 F200.00
G01 X-0.0981 Y-4.6422 F200.00
G01 X-0.1080 Y-4.6629 F200.00
G01 X-0.1155 Y-4.6847 F200.00
G01 X-0.1205 Y-4.7072 F200.00
G01 X-0.1230 Y-4.7300 F200.00
G01 X-0.1232 Y-4.7400 F200.00
G01 X-0.1232 Y-5.4200 F200.00
G01 X-0.1230 Y-5.4300 F200.00
G01 X-0.1205 Y-5.4528 F200.00
G01 X-0.1155 Y-5.4753 F200.00
G01 X-0.1080 Y-5.4971 F200.00
G01 X-0.0981 Y-5.5178 F200.00
G01 X-0.0859 Y-5.5373 F200.00
G01 X-0.0716 Y-5.5553 F200.00
G01 X-0.0553 Y-5.5716 F200.00
G01 X-0.0373 Y-5.5859 F200.00
G01 X-0.0178 Y-5.5981 F200.00
G01 X0.0029 Y-5.6080 F200.00
G01 X0.0247 Y-5.6155 F200.00
G01 X0.0472 Y-5.6205 F200.00
G01 X0.0700 Y-5.6230 F200.00
G01 X10.0800 Y-5.6232 F200.00
G00 Z2.5400
G00 X0.0700 Y-6.8930
G01 F100.00
G01 Z-0.0933
G01 F200.00
G01 X10.0800 Y-6.8932 F200.00
G01 X10.0900 Y-6.8930 F200.00
G01 X10.1128 Y-6.8905 F200.00
G01 X10.1353 Y-6.8855 F200.00
G01 X10.1571 Y-6.8780 F200.00
G01 X10.1778 Y-6.8681 F200.00
G01 X10.1973 Y-6.8559 F200.00
G01 X10.2153 Y-6.8416 F200.00
G01 X10.2316 Y-6.8253 F200.00
G01 X10.2459 Y-6.8073 F200.00
G01 X10.2581 Y-6.7878 F200.00
G01 X10.2680 Y-6.7671 F200.00
G01 X10.2728 Y-6.7533 F200.00
G01 X17.1450 Y-6.7533 F200.00
G01 X17.1902 Y-6.7508 F200.00
G01 X17.2236 Y-6.7454 F200.00
G01 X17.2458 Y-6.7403 F200.00
G01 X17.2782 Y-6.7307 F200.00
G01 X17.3200 Y-6.7134 F200.00
G01 X17.3498 Y-6.6973 F200.00
G01 X17.3690 Y-6.6852 F200.00
G01 X17.3965 Y-6.6653 F200.00
G01 X17.4219 Y-6.6430 F200.00
G01 X18.6482 Y-5.4171 F200.00
G01 X18.7021 Y-5.4391 F200.00
G01 X18.8046 Y-5.4689 F200.00
G01 X18.8268 Y-5.4740 F200.00
G01 X18.9208 Y-5.4900 F200.00
G01 X18.9434 Y-5.4925 F200.00
G01 X19.0500 Y-5.4982 F200.00
G01 X19.1679 Y-5.4916 F200.00
G01 X19.2844 Y-5.4718 F200.00
G01 X19.3870 Y-5.4426 F200.00
G01 X19.4085 Y-5.4350 F200.00
G01 X19.5070 Y-5.3939 F200.00
G01 X19.6005 Y-5.3426 F200.00
G01 X19.6198 Y-5.3304 F200.00
G01 X19.7067 Y-5.2684 F200.00
G01 X19.7947 Y-5.1897 F200.00
G01 X19.8661 Y-5.1104 F200.00
G01 X19.8803 Y-5.0926 F200.00
G01 X19.9418 Y-5.0053 F200.00
G01 X19.9937 Y-4.9121 F200.00
G01 X20.0036 Y-4.8916 F200.00
G01 X20.0400 Y-4.8035 F200.00
G01 X20.0476 Y-4.7820 F200.00
G01 X20.0768 Y-4.6794 F200.00
G01 X20.0966 Y-4.5629 F200.00
G01 X20.1032 Y-4.4450 F200.00
G01 X20.0966 Y-4.3271 F200.00
G01 X20.0768 Y-4.2106 F200.00
G01 X20.0441 Y-4.0971 F200.00
G01 X19.9989 Y-3.9880 F200.00
G01 X19.9476 Y-3.8945 F200.00
G01 X19.9354 Y-3.8752 F200.00
G01 X19.8803 Y-3.7974 F200.00
G01 X19.8661 Y-3.7796 F200.00
G01 X19.7947 Y-3.7003 F200.00
G01 X19.7154 Y-3.6289 F200.00
G01 X19.6976 Y-3.6147 F200.00
G01 X19.6103 Y-3.5532 F200.00
G01 X19.5171 Y-3.5013 F200.00
G01 X19.4966 Y-3.4914 F200.00
G01 X19.3978 Y-3.4509 F200.00
G01 X19.2844 Y-3.4182 F200.00
G01 X19.1679 Y-3.3984 F200.00
G01 X19.0500 Y-3.3918 F200.00
G01 X18.9321 Y-3.3984 F200.00
G01 X18.8156 Y-3.4182 F200.00
G01 X18.7021 Y-3.4509 F200.00
G01 X18.6034 Y-3.4914 F200.00
G01 X18.5829 Y-3.5013 F200.00
G01 X18.4897 Y-3.5532 F200.00
G01 X18.3933 Y-3.6216 F200.00
G01 X18.3053 Y-3.7003 F200.00
G01 X18.2339 Y-3.7796 F200.00
G01 X18.2197 Y-3.7974 F200.00
G01 X18.1646 Y-3.8752 F200.00
G01 X18.1524 Y-3.8945 F200.00
G01 X18.1011 Y-3.9880 F200.00
G01 X18.0559 Y-4.0972 F200.00
G01 X18.0232 Y-4.2106 F200.00
G01 X18.0050 Y-4.3158 F200.00
G01 X18.0025 Y-4.3384 F200.00
G01 X17.9971 Y-4.4336 F200.00
G01 X17.9971 Y-4.4564 F200.00
G01 X18.0034 Y-4.5629 F200.00
G01 X18.0232 Y-4.6794 F200.00
G01 X18.0559 Y-4.7928 F200.00
G01 X18.0779 Y-4.8468 F200.00
G01 X16.9779 Y-5.9467 F200.00
G01 X10.2728 Y-5.9467 F200.00
G01 X10.2680 Y-5.9329 F200.00
G01 X10.2581 Y-5.9122 F200.00
G01 X10.2459 Y-5.8927 F200.00
G01 X10.2316 Y-5.8747 F200.00
G01 X10.2153 Y-5.8584 F200.00
G01 X10.1973 Y-5.8441 F200.00
G01 X10.1778 Y-5.8319 F200.00
G01 X10.1571 Y-5.8220 F200.00
G01 X10.1353 Y-5.8145 F200.00
G01 X10.1128 Y-5.8095 F200.00
G01 X10.0900 Y-5.8070 F200.00
G01 X10.0800 Y-5.8068 F200.00
G01 X0.0700 Y-5.8070 F200.00
G01 X0.0472 Y-5.8095 F200.00
G01 X0.0247 Y-5.8145 F200.00
G01 X0.0029 Y-5.8220 F200.00
G01 X-0.0178 Y-5.8319 F200.00
G01 X-0.0373 Y-5.8441 F200.00
G01 X-0.0553 Y-5.8584 F200.00
G01 X-0.0716 Y-5.8747 F200.00
G01 X-0.0859 Y-5.8927 F200.00
G01 X-0.0981 Y-5.9122 F200.00
G01 X-0.1080 Y-5.9329 F200.00
G01 X-0.1155 Y-5.9547 F200.00
G01 X-0.1205 Y-5.9772 F200.00
G01 X-0.1230 Y-6.0000 F200.00
G01 X-0.1232 Y-6.0100 F200.00
G01 X-0.1232 Y-6.6900 F200.00
G01 X-0.1230 Y-6.7000 F200.00
G01 X-0.1205 Y-6.7228 F200.00
G01 X-0.1155 Y-6.7453 F200.00
G01 X-0.1080 Y-6.7671 F200.00
G01 X-0.0981 Y-6.7878 F200.00
G01 X-0.0859 Y-6.8073 F200.00
G01 X-0.0716 Y-6.8253 F200.00
G01 X-0.0553 Y-6.8416 F200.00
G01 X-0.0373 Y-6.8559 F200.00
G01 X-0.0178 Y-6.8681 F200.00
G01 X0.0029 Y-6.8780 F200.00
G01 X0.0247 Y-6.8855 F200.00
G01 X0.0472 Y-6.8905 F200.00
G01 X0.0700 Y-6.8930 F200.00
G01 X10.0800 Y-6.8932 F200.00
G00 Z2.5400
G00 X0.0700 Y-8.1630
G01 F100.00
G01 Z-0.0933
G01 F200.00
G01 X10.0800 Y-8.1632 F200.00
G01 X10.0900 Y-8.1630 F200.00
G01 X10.1128 Y-8.1605 F200.00
G01 X10.1353 Y-8.1555 F200.00
G01 X10.1571 Y-8.1480 F200.00
G01 X10.1778 Y-8.1381 F200.00
G01 X10.1973 Y-8.1259 F200.00
G01 X10.2153 Y-8.1116 F200.00
G01 X10.2316 Y-8.0953 F200.00
G01 X10.2459 Y-8.0773 F200.00
G01 X10.2581 Y-8.0578 F200.00
G01 X10.2680 Y-8.0371 F200.00
G01 X10.2728 Y-8.0233 F200.00
G01 X18.4150 Y-8.0233 F200.00
G01 X18.4488 Y-8.0217 F200.00
G01 X18.4714 Y-8.0192 F200.00
G01 X18.5047 Y-8.0132 F200.00
G01 X18.5373 Y-8.0041 F200.00
G01 X18.5589 Y-7.9966 F200.00
G01 X18.5900 Y-7.9834 F200.00
G01 X18.6198 Y-7.9673 F200.00
G01 X18.6407 Y-7.9540 F200.00
G01 X18.7021 Y-7.9791 F200.00
G01 X18.8046 Y-8.0089 F200.00
G01 X18.8268 Y-8.0140 F200.00
G01 X18.9208 Y-8.0300 F200.00
G01 X18.9434 Y-8.0325 F200.00
G01 X19.0500 Y-8.0382 F200.00
G01 X19.1566 Y-8.0325 F200.00
G01 X19.1792 Y-8.0300 F200.00
G01 X19.2844 Y-8.0118 F200.00
G01 X19.3870 Y-7.9826 F200.00
G01 X19.4085 Y-7.9750 F200.00
G01 X19.4966 Y-7.9386 F200.00
G01 X19.5171 Y-7.9287 F200.00
G01 X19.6103 Y-7.8768 F200.00
G01 X19.7067 Y-7.8084 F200.00
G01 X19.7947 Y-7.7297 F200.00
G01 X19.8734 Y-7.6417 F200.00
G01 X19.9418 Y-7.5453 F200.00
G01 X19.9937 Y-7.4521 F200.00
G01 X20.0036 Y-7.4316 F200.00
G01 X20.0400 Y-7.3435 F200.00
G01 X20.0476 Y-7.3220 F200.00
G01 X20.0768 Y-7.2194 F200.00
G01 X20.0966 Y-7.1029 F200.00
G01 X20.1032 Y-6.9850 F200.00
G01 X20.0975 Y-6.8784 F200.00
G01 X20.0950 Y-6.8558 F200.00
G01 X20.0790 Y-6.7618 F200.00
G01 X20.0739 Y-6.7396 F200.00
G01 X20.0441 Y-6.6371 F200.00
G01 X19.9989 Y-6.5280 F200.00
G01 X19.9418 Y-6.4247 F200.00
G01 X19.8803 Y-6.3374 F200.00
G01 X19.8661 Y-6.3196 F200.00
G01 X19.8026 Y-6.2486 F200.00
G01 X19.7864 Y-6.2324 F200.00
G01 X19.7067 Y-6.1616 F200.00
G01 X19.6103 Y-6.0932 F200.00
G01 X19.5070 Y-6.0361 F200.00
G01 X19.4085 Y-5.9950 F200.00
G01 X19.3870 Y-5.9874 F200.00
G01 X19.2954 Y-5.9611 F200.00
G01 X19.2732 Y-5.9560 F200.00
G01 X19.1679 Y-5.9384 F200.00
G01 X19.0500 Y-5.9318 F200.00
G01 X18.9321 Y-5.9384 F200.00
G01 X18.8156 Y-5.9582 F200.00
G01 X18.7021 Y-5.9909 F200.00
G01 X18.5930 Y-6.0361 F200.00
G01 X18.4897 Y-6.0932 F200.00
G01 X18.3933 Y-6.1616 F200.00
G01 X18.3053 Y-6.2403 F200.00
G01 X18.2266 Y-6.3283 F200.00
G01 X18.1582 Y-6.4247 F200.00
G01 X18.1011 Y-6.5280 F200.00
G01 X18.0559 Y-6.6372 F200.00
G01 X18.0232 Y-6.7506 F200.00
G01 X18.0034 Y-6.8671 F200.00
G01 X17.9968 Y-6.9850 F200.00
G01 X18.0034 Y-7.1029 F200.00
G01 X18.0227 Y-7.2167 F200.00
G01 X10.2728 Y-7.2167 F200.00
G01 X10.2680 Y-7.2029 F200.00
G01 X10.2581 Y-7.1822 F200.00
G01 X10.2459 Y-7.1627 F200.00
G01 X10.2316 Y-7.1447 F200.00
G01 X10.2153 Y-7.1284 F200.00
G01 X10.1973 Y-7.1141 F200.00
G01 X10.1778 Y-7.1019 F200.00
G01 X10.1571 Y-7.0920 F200.00
G01 X10.1353 Y-7.0845 F200.00
G01 X10.1128 Y-7.0795 F200.00
G01 X10.0900 Y-7.0770 F200.00
G01 X10.0800 Y-7.0768 F200.00
G01 X0.0700 Y-7.0770 F200.00
G01 X0.0472 Y-7.0795 F200.00
G01 X0.0247 Y-7.0845 F200.00
G01 X0.0029 Y-7.0920 F200.00
G01 X-0.0178 Y-7.1019 F200.00
G01 X-0.0373 Y-7.1141 F200.00
G01 X-0.0553 Y-7.1284 F200.00
G01 X-0.0716 Y-7.1447 F200.00
G01 X-0.0859 Y-7.1627 F200.00
G01 X-0.0981 Y-7.1822 F200.00
G01 X-0.1080 Y-7.2029 F200.00
G01 X-0.1155 Y-7.2247 F200.00
G01 X-0.1205 Y-7.2472 F200.00
G01 X-0.1230 Y-7.2700 F200.00
G01 X-0.1232 Y-7.2800 F200.00
G01 X-0.1232 Y-7.9600 F200.00
G01 X-0.1230 Y-7.9700 F200.00
G01 X-0.1205 Y-7.9928 F200.00
G01 X-0.1155 Y-8.0153 F200.00
G01 X-0.1080 Y-8.0371 F200.00
G01 X-0.0981 Y-8.0578 F200.00
G01 X-0.0859 Y-8.0773 F200.00
G01 X-0.0716 Y-8.0953 F200.00
G01 X-0.0553 Y-8.1116 F200.00
G01 X-0.0373 Y-8.1259 F200.00
G01 X-0.0178 Y-8.1381 F200.00
G01 X0.0029 Y-8.1480 F200.00
G01 X0.0247 Y-8.1555 F200.00
G01 X0.0472 Y-8.1605 F200.00
G01 X0.0700 Y-8.1630 F200.00
G01 X10.0800 Y-8.1632 F200.00
G00 Z2.5400
G00 X0.0700 Y-9.4330
G01 F100.00
G01 Z-0.0933
G01 F200.00
G01 X10.0800 Y-9.4332 F200.00
G01 X10.0900 Y-9.4330 F200.00
G01 X10.1128 Y-9.4305 F200.00
G01 X10.1353 Y-9.4255 F200.00
G01 X10.1571 Y-9.4180 F200.00
G01 X10.1778 Y-9.4081 F200.00
G01 X10.1973 Y-9.3959 F200.00
G01 X10.2153 Y-9.3816 F200.00
G01 X10.2316 Y-9.3653 F200.00
G01 X10.2459 Y-9.3473 F200.00
G01 X10.2581 Y-9.3278 F200.00
G01 X10.2680 Y-9.3071 F200.00
G01 X10.2728 Y-9.2933 F200.00
G01 X18.0227 Y-9.2933 F200.00
G01 X18.0034 Y-9.4071 F200.00
G01 X17.9968 Y-9.5250 F200.00
G01 X18.0034 Y-9.6429 F200.00
G01 X18.0232 Y-9.7594 F200.00
G01 X18.0559 Y-9.8729 F200.00
G01 X18.1011 Y-9.9820 F200.00
G01 X18.1582 Y-10.0853 F200.00
G01 X18.2266 Y-10.1817 F200.00
G01 X18.3053 Y-10.2697 F200.00
G01 X18.3933 Y-10.3484 F200.00
G01 X18.4897 Y-10.4168 F200.00
G01 X18.5930 Y-10.4739 F200.00
G01 X18.7021 Y-10.5191 F200.00
G01 X18.8156 Y-10.5518 F200.00
G01 X18.9321 Y-10.5716 F200.00
G01 X19.0500 Y-10.5782 F200.00
G01 X19.1679 Y-10.5716 F200.00
G01 X19.2844 Y-10.5518 F200.00
G01 X19.3979 Y-10.5191 F200.00
G01 X19.4966 Y-10.4786 F200.00
G01 X19.5171 Y-10.4687 F200.00
G01 X19.6005 Y-10.4226 F200.00
G01 X19.6198 Y-10.4104 F200.00
G01 X19.7067 Y-10.3484 F200.00
G01 X19.7947 Y-10.2697 F200.00
G01 X19.8734 Y-10.1817 F200.00
G01 X19.9418 Y-10.0853 F200.00
G01 X19.9989 Y-9.9820 F200.00
G01 X20.0400 Y-9.8835 F200.00
G01 X20.0476 Y-9.8620 F200.00
G01 X20.0739 Y-9.7704 F200.00
G01 X20.0790 Y-9.7482 F200.00
G01 X20.0966 Y-9.6429 F200.00
G01 X20.1032 Y-9.5250 F200.00
G01 X20.0966 Y-9.4071 F200.00
G01 X20.0790 Y-9.3018 F200.00
G01 X20.0739 Y-9.2796 F200.00
G01 X20.0476 Y-9.1880 F200.00
G01 X20.0400 Y-9.1665 F200.00
G01 X19.9989 Y-9.0680 F200.00
G01 X19.9418 Y-8.9647 F200.00
G01 X19.8734 Y-8.8683 F200.00
G01 X19.8026 Y-8.7886 F200.00
G01 X19.7864 Y-8.7724 F200.00
G01 X19.7154 Y-8.7089 F200.00
G01 X19.6976 Y-8.6947 F200.00
G01 X19.6103 Y-8.6332 F200.00
G01 X19.5070 Y-8.5761 F200.00
G01 X19.3979 Y-8.5309 F200.00
G01 X19.2954 Y-8.5011 F200.00
G01 X19.2732 Y-8.4960 F200.00
G01 X19.1679 Y-8.4784 F200.00
G01 X19.0500 Y-8.4718 F200.00
G01 X18.9434 Y-8.4775 F200.00
G01 X18.9208 Y-8.4800 F200.00
G01 X18.8268 Y-8.4960 F200.00
G01 X18.8046 Y-8.5011 F200.00
G01 X18.7021 Y-8.5309 F200.00
G01 X18.6407 Y-8.5560 F200.00
G01 X18.6198 Y-8.5427 F200.00
G01 X18.5900 Y-8.5266 F200.00
G01 X18.5589 Y-8.5134 F200.00
G01 X18.5373 Y-8.5059 F200.00
G01 X18.5047 Y-8.4968 F200.00
G01 X18.4714 Y-8.4908 F200.00
G01 X18.4488 Y-8.4883 F200.00
G01 X18.4150 Y-8.4867 F200.00
G01 X10.2728 Y-8.4867 F200.00
G01 X10.2680 Y-8.4729 F200.00
G01 X10.2581 Y-8.4522 F200.00
G01 X10.2459 Y-8.4327 F200.00
G01 X10.2316 Y-8.4147 F200.00
G01 X10.2153 Y-8.3984 F200.00
G01 X10.1973 Y-8.3841 F200.00
G01 X10.1778 Y-8.3719 F200.00
G01 X10.1571 Y-8.3620 F200.00
G01 X10.1353 Y-8.3545 F200.00
G01 X10.1128 Y-8.3495 F200.00
G01 X10.0900 Y-8.3470 F200.00
G01 X10.0800 Y-8.3468 F200.00
G01 X0.0800 Y-8.3468 F200.00
G01 X0.0700 Y-8.3470 F200.00
G01 X0.0472 Y-8.3495 F200.00
G01 X0.0247 Y-8.3545 F200.00
G01 X0.0029 Y-8.3620 F200.00
G01 X-0.0178 Y-8.3719 F200.00
G01 X-0.0373 Y-8.3841 F200.00
G01 X-0.0553 Y-8.3984 F200.00
G01 X-0.0716 Y-8.4147 F200.00
G01 X-0.0859 Y-8.4327 F200.00
G01 X-0.0981 Y-8.4522 F200.00
G01 X-0.1080 Y-8.4729 F200.00
G01 X-0.1155 Y-8.4947 F200.00
G01 X-0.1205 Y-8.5172 F200.00
G01 X-0.1230 Y-8.5400 F200.00
G01 X-0.1232 Y-8.5500 F200.00
G01 X-0.1232 Y-9.2300 F200.00
G01 X-0.1230 Y-9.2400 F200.00
G01 X-0.1205 Y-9.2628 F200.00
G01 X-0.1155 Y-9.2853 F200.00
G01 X-0.1080 Y-9.3071 F200.00
G01 X-0.0981 Y-9.3278 F200.00
G01 X-0.0859 Y-9.3473 F200.00
G01 X-0.0716 Y-9.3653 F200.00
G01 X-0.0553 Y-9.3816 F200.00
G01 X-0.0373 Y-9.3959 F200.00
G01 X-0.0178 Y-9.4081 F200.00
G01 X0.0029 Y-9.4180 F200.00
G01 X0.0247 Y-9.4255 F200.00
G01 X0.0472 Y-9.4305 F200.00
G01 X0.0700 Y-9.4330 F200.00
G01 X10.0800 Y-9.4332 F200.00
G00 Z2.5400
G00 X0.0700 Y-10.7030
G01 F100.00
G01 Z-0.0933
G01 F200.00
G01 X10.0800 Y-10.7032 F200.00
G01 X10.0900 Y-10.7030 F200.00
G01 X10.1128 Y-10.7005 F200.00
G01 X10.1353 Y-10.6955 F200.00
G01 X10.1571 Y-10.6880 F200.00
G01 X10.1778 Y-10.6781 F200.00
G01 X10.1973 Y-10.6659 F200.00
G01 X10.2153 Y-10.6516 F200.00
G01 X10.2316 Y-10.6353 F200.00
G01 X10.2459 Y-10.6173 F200.00
G01 X10.2581 Y-10.5978 F200.00
G01 X10.2680 Y-10.5771 F200.00
G01 X10.2728 Y-10.5633 F200.00
G01 X16.9779 Y-10.5633 F200.00
G01 X18.0779 Y-11.6632 F200.00
G01 X18.0559 Y-11.7171 F200.00
G01 X18.0232 Y-11.8306 F200.00
G01 X18.0034 Y-11.9471 F200.00
G01 X17.9971 Y-12.0536 F200.00
G01 X17.9971 Y-12.0764 F200.00
G01 X18.0025 Y-12.1716 F200.00
G01 X18.0050 Y-12.1942 F200.00
G01 X18.0232 Y-12.2994 F200.00
G01 X18.0559 Y-12.4129 F200.00
G01 X18.1011 Y-12.5220 F200.00
G01 X18.1582 Y-12.6253 F200.00
G01 X18.2266 Y-12.7217 F200.00
G01 X18.2974 Y-12.8014 F200.00
G01 X18.3136 Y-12.8176 F200.00
G01 X18.3846 Y-12.8811 F200.00
G01 X18.4024 Y-12.8953 F200.00
G01 X18.4897 Y-12.9568 F200.00
G01 X18.5930 Y-13.0139 F200.00
G01 X18.7022 Y-13.0591 F200.00
G01 X18.8156 Y-13.0918 F200.00
G01 X18.9321 Y-13.1116 F200.00
G01 X19.0386 Y-13.1179 F200.00
G01 X19.0614 Y-13.1179 F200.00
G01 X19.1679 Y-13.1116 F200.00
G01 X19.2732 Y-13.0940 F200.00
G01 X19.2954 Y-13.0889 F200.00
G01 X19.3870 Y-13.0626 F200.00
G01 X19.4085 Y-13.0550 F200.00
G01 X19.5070 Y-13.0139 F200.00
G01 X19.6005 Y-12.9626 F200.00
G01 X19.6198 Y-12.9504 F200.00
G01 X19.7067 Y-12.8884 F200.00
G01 X19.7947 Y-12.8097 F200.00
G01 X19.8734 Y-12.7217 F200.00
G01 X19.9418 Y-12.6253 F200.00
G01 X19.9989 Y-12.5220 F200.00
G01 X20.0441 Y-12.4129 F200.00
G01 X20.0768 Y-12.2994 F200.00
G01 X20.0950 Y-12.1942 F200.00
G01 X20.0975 Y-12.1716 F200.00
G01 X20.1032 Y-12.0650 F200.00
G01 X20.0975 Y-11.9584 F200.00
G01 X20.0950 Y-11.9358 F200.00
G01 X20.0768 Y-11.8306 F200.00
G01 X20.0476 Y-11.7280 F200.00
G01 X20.0400 Y-11.7065 F200.00
G01 X20.0036 Y-11.6184 F200.00
G01 X19.9937 Y-11.5979 F200.00
G01 X19.9418 Y-11.5047 F200.00
G01 X19.8734 Y-11.4083 F200.00
G01 X19.7947 Y-11.3203 F200.00
G01 X19.7067 Y-11.2416 F200.00
G01 X19.6198 Y-11.1796 F200.00
G01 X19.6005 Y-11.1674 F200.00
G01 X19.5070 Y-11.1161 F200.00
G01 X19.4085 Y-11.0750 F200.00
G01 X19.3870 Y-11.0674 F200.00
G01 X19.2844 Y-11.0382 F200.00
G01 X19.1679 Y-11.0184 F200.00
G01 X19.0500 Y-11.0118 F200.00
G01 X18.9434 Y-11.0175 F200.00
G01 X18.9208 Y-11.0200 F200.00
G01 X18.8268 Y-11.0360 F200.00
G01 X18.8046 Y-11.0411 F200.00
G01 X18.7021 Y-11.0709 F200.00
G01 X18.6482 Y-11.0929 F200.00
G01 X17.4219 Y-9.8670 F200.00
G01 X17.3965 Y-9.8447 F200.00
G01 X17.3596 Y-9.8185 F200.00
G01 X17.3301 Y-9.8019 F200.00
G01 X17.3096 Y-9.7920 F200.00
G01 X17.2782 Y-9.7793 F200.00
G01 X17.2347 Y-9.7668 F200.00
G01 X17.2014 Y-9.7608 F200.00
G01 X17.1788 Y-9.7583 F200.00
G01 X17.1450 Y-9.7567 F200.00
G01 X10.2728 Y-9.7567 F200.00
G01 X10.2680 Y-9.7429 F200.00
G01 X10.2581 Y-9.7222 F200.00
G01 X10.2459 Y-9.7027 F200.00
G01 X10.2316 Y-9.6847 F200.00
G01 X10.2153 Y-9.6684 F200.00
G01 X10.1973 Y-9.6541 F200.00
G01 X10.1778 Y-9.6419 F200.00
G01 X10.1571 Y-9.6320 F200.00
G01 X10.1353 Y-9.6245 F200.00
G01 X10.1128 Y-9.6195 F200.00
G01 X10.0900 Y-9.6170 F200.00
G01 X10.0800 Y-9.6168 F200.00
G01 X0.0700 Y-9.6170 F200.00
G01 X0.0472 Y-9.6195 F200.00
G01 X0.0247 Y-9.6245 F200.00
G01 X0.0029 Y-9.6320 F200.00
G01 X-0.0178 Y-9.6419 F200.00
G01 X-0.0373 Y-9.6541 F200.00
G01 X-0.0553 Y-9.6684 F200.00
G01 X-0.0716 Y-9.6847 F200.00
G01 X-0.0859 Y-9.7027 F200.00
G01 X-0.0981 Y-9.7222 F200.00
G01 X-0.1080 Y-9.7429 F200.00
G01 X-0.1155 Y-9.7647 F200.00
G01 X-0.1205 Y-9.7872 F200.00
G01 X-0.1230 Y-9.8100 F200.00
G01 X-0.1232 Y-9.8200 F200.00
G01 X-0.1232 Y-10.5000 F200.00
G01 X-0.1230 Y-10.5100 F200.00
G01 X-0.1205 Y-10.5328 F200.00
G01 X-0.1155 Y-10.5553 F200.00
G01 X-0.1080 Y-10.5771 F200.00
G01 X-0.0981 Y-10.5978 F200.00
G01 X-0.0859 Y-10.6173 F200.00
G01 X-0.0716 Y-10.6353 F200.00
G01 X-0.0553 Y-10.6516 F200.00
G01 X-0.0373 Y-10.6659 F200.00
G01 X-0.0178 Y-10.6781 F200.00
G01 X0.0029 Y-10.6880 F200.00
G01 X0.0247 Y-10.6955 F200.00
G01 X0.0472 Y-10.7005 F200.00
G01 X0.0700 Y-10.7030 F200.00
G01 X10.0800 Y-10.7032 F200.00
G00 Z2.5400
G00 X0.0700 Y-11.9730
G01 F100.00
G01 Z-0.0933
G01 F200.00
G01 X10.0800 Y-11.9732 F200.00
G01 X10.0900 Y-11.9730 F200.00
G01 X10.1128 Y-11.9705 F200.00
G01 X10.1353 Y-11.9655 F200.00
G01 X10.1571 Y-11.9580 F200.00
G01 X10.1778 Y-11.9481 F200.00
G01 X10.1973 Y-11.9359 F200.00
G01 X10.2153 Y-11.9216 F200.00
G01 X10.2316 Y-11.9053 F200.00
G01 X10.2459 Y-11.8873 F200.00
G01 X10.2581 Y-11.8678 F200.00
G01 X10.2680 Y-11.8471 F200.00
G01 X10.2728 Y-11.8333 F200.00
G01 X15.7079 Y-11.8333 F200.00
G01 X18.0779 Y-14.2032 F200.00
G01 X18.0559 Y-14.2571 F200.00
G01 X18.0232 Y-14.3706 F200.00
G01 X18.0034 Y-14.4871 F200.00
G01 X17.9971 Y-14.5936 F200.00
G01 X17.9971 Y-14.6164 F200.00
G01 X18.0025 Y-14.7116 F200.00
G01 X18.0050 Y-14.7342 F200.00
G01 X18.0232 Y-14.8394 F200.00
G01 X18.0524 Y-14.9420 F200.00
G01 X18.0600 Y-14.9635 F200.00
G01 X18.0964 Y-15.0516 F200.00
G01 X18.1063 Y-15.0721 F200.00
G01 X18.1582 Y-15.1653 F200.00
G01 X18.2266 Y-15.2617 F200.00
G01 X18.3053 Y-15.3497 F200.00
G01 X18.3846 Y-15.4211 F200.00
G01 X18.4024 Y-15.4353 F200.00
G01 X18.4897 Y-15.4968 F200.00
G01 X18.5930 Y-15.5539 F200.00
G01 X18.7021 Y-15.5991 F200.00
G01 X18.8156 Y-15.6318 F200.00
G01 X18.9208 Y-15.6500 F200.00
G01 X18.9434 Y-15.6525 F200.00
G01 X19.0500 Y-15.6582 F200.00
G01 X19.1566 Y-15.6525 F200.00
G01 X19.1792 Y-15.6500 F200.00
G01 X19.2732 Y-15.6340 F200.00
G01 X19.2954 Y-15.6289 F200.00
G01 X19.3979 Y-15.5991 F200.00
G01 X19.5070 Y-15.5539 F200.00
G01 X19.6103 Y-15.4968 F200.00
G01 X19.7067 Y-15.4284 F200.00
G01 X19.7947 Y-15.3497 F200.00
G01 X19.8661 Y-15.2704 F200.00
G01 X19.8803 Y-15.2526 F200.00
G01 X19.9354 Y-15.1748 F200.00
G01 X19.9476 Y-15.1555 F200.00
G01 X19.9989 Y-15.0620 F200.00
G01 X20.0400 Y-14.9635 F200.00
G01 X20.0476 Y-14.9420 F200.00
G01 X20.0768 Y-14.8394 F200.00
G01 X20.0966 Y-14.7229 F200.00
G01 X20.1032 Y-14.6050 F200.00
G01 X20.0966 Y-14.4871 F200.00
G01 X20.0768 Y-14.3706 F200.00
G01 X20.0476 Y-14.2680 F200.00
G01 X20.0400 Y-14.2465 F200.00
G01 X19.9989 Y-14.1480 F200.00
G01 X19.9476 Y-14.0545 F200.00
G01 X19.9354 Y-14.0352 F200.00
G01 X19.8803 Y-13.9574 F200.00
G01 X19.8661 Y-13.9396 F200.00
G01 X19.7947 Y-13.8603 F200.00
G01 X19.7154 Y-13.7889 F200.00
G01 X19.6976 Y-13.7747 F200.00
G01 X19.6103 Y-13.7132 F200.00
G01 X19.5171 Y-13.6613 F200.00
G01 X19.4966 Y-13.6514 F200.00
G01 X19.3978 Y-13.6109 F200.00
G01 X19.2954 Y-13.5811 F200.00
G01 X19.2732 Y-13.5760 F200.00
G01 X19.1792 Y-13.5600 F200.00
G01 X19.1566 Y-13.5575 F200.00
G01 X19.0500 Y-13.5518 F200.00
G01 X18.9321 Y-13.5584 F200.00
G01 X18.8268 Y-13.5760 F200.00
G01 X18.8046 Y-13.5811 F200.00
G01 X18.7022 Y-13.6109 F200.00
G01 X18.6482 Y-13.6329 F200.00
G01 X16.1561 Y-11.1408 F200.00
G01 X16.1265 Y-11.1147 F200.00
G01 X16.0990 Y-11.0948 F200.00
G01 X16.0798 Y-11.0827 F200.00
G01 X16.0500 Y-11.0666 F200.00
G01 X16.0082 Y-11.0493 F200.00
G01 X15.9758 Y-11.0397 F200.00
G01 X15.9536 Y-11.0346 F200.00
G01 X15.9202 Y-11.0292 F200.00
G01 X15.8750 Y-11.0267 F200.00
G01 X10.2728 Y-11.0267 F200.00
G01 X10.2680 Y-11.0129 F200.00
G01 X10.2581 Y-10.9922 F200.00
G01 X10.2459 Y-10.9727 F200.00
G01 X10.2316 Y-10.9547 F200.00
G01 X10.2153 Y-10.9384 F200.00
G01 X10.1973 Y-10.9241 F200.00
G01 X10.1778 Y-10.9119 F200.00
G01 X10.1571 Y-10.9020 F200.00
G01 X10.1353 Y-10.8945 F200.00
G01 X10.1128 Y-10.8895 F200.00
G01 X10.0900 Y-10.8870 F200.00
G01 X10.0800 Y-10.8868 F200.00
G01 X0.0700 Y-10.8870 F200.00
G01 X0.0472 Y-10.8895 F200.00
G01 X0.0247 Y-10.8945 F200.00
G01 X0.0029 Y-10.9020 F200.00
G01 X-0.0178 Y-10.9119 F200.00
G01 X-0.0373 Y-10.9241 F200.00
G01 X-0.0553 Y-10.9384 F200.00
G01 X-0.0716 Y-10.9547 F200.00
G01 X-0.0859 Y-10.9727 F200.00
G01 X-0.0981 Y-10.9922 F200.00
G01 X-0.1080 Y-11.0129 F200.00
G01 X-0.1155 Y-11.0347 F200.00
G01 X-0.1205 Y-11.0572 F200.00
G01 X-0.1230 Y-11.0800 F200.00
G01 X-0.1232 Y-11.0900 F200.00
G01 X-0.1232 Y-11.7700 F200.00
G01 X-0.1230 Y-11.7800 F200.00
G01 X-0.1205 Y-11.8028 F200.00
G01 X-0.1155 Y-11.8253 F200.00
G01 X-0.1080 Y-11.8471 F200.00
G01 X-0.0981 Y-11.8678 F200.00
G01 X-0.0859 Y-11.8873 F200.00
G01 X-0.0716 Y-11.9053 F200.00
G01 X-0.0553 Y-11.9216 F200.00
G01 X-0.0373 Y-11.9359 F200.00
G01 X-0.0178 Y-11.9481 F200.00
G01 X0.0029 Y-11.9580 F200.00
G01 X0.0247 Y-11.9655 F200.00
G01 X0.0472 Y-11.9705 F200.00
G01 X0.0700 Y-11.9730 F200.00
G01 X10.0800 Y-11.9732 F200.00
G00 Z2.5400
M05
G00 Z2.5400
G00 Z25.00
G00 X0.0 Y0.0

