(G-CODE GENERATED BY FLATCAM v8.908 - www.flatcam.org - Version Date: 2019/02/9)

(Name: pickit3_icsp_adapter-PTH.drl_mill_cnc)
(Type: G-code from Geometry)
(Units: MM)

(Created on Sunday, 05 May 2019 at 21:07)

(TOOL DIAMETER: 0.8 mm)

(Feedrate: 50.0 mm/min)
(Feedrate_Z: 50.0 mm/min)
(Feedrate rapids 50.0 mm/min)

(Z_Cut: -2.0 mm)
(Z_Move: 2.54 mm)
(Z Toolchange: 25.4 mm)
(X,Y Toolchange: 0.0000, 0.0000 mm)
(Z Start: None mm)
(Z End: 25.0 mm)
(Steps per circle: 64)
(Postprocessor Geometry: grbl_11)

(X range:   18.9500 ...   19.1500  mm)
(Y range:  -14.7050 ...   -1.8050  mm)

(Spindle Speed: 20000 RPM)


G21
G90
G94
G17

G01 F50.00
G00 Z2.5400

M03 S20000
G4 P1.0
G00 X19.1500 Y-1.9050
G01 F50.00
G01 Z-2.0000
G01 F50.00
G01 X19.1481 Y-1.9245 F50.00
G01 X19.1424 Y-1.9433 F50.00
G01 X19.1331 Y-1.9606 F50.00
G01 X19.1207 Y-1.9757 F50.00
G01 X19.1056 Y-1.9881 F50.00
G01 X19.0883 Y-1.9974 F50.00
G01 X19.0695 Y-2.0031 F50.00
G01 X19.0500 Y-2.0050 F50.00
G01 X19.0305 Y-2.0031 F50.00
G01 X19.0117 Y-1.9974 F50.00
G01 X18.9944 Y-1.9881 F50.00
G01 X18.9793 Y-1.9757 F50.00
G01 X18.9669 Y-1.9606 F50.00
G01 X18.9576 Y-1.9433 F50.00
G01 X18.9519 Y-1.9245 F50.00
G01 X18.9500 Y-1.9050 F50.00
G01 X18.9519 Y-1.8855 F50.00
G01 X18.9576 Y-1.8667 F50.00
G01 X18.9669 Y-1.8494 F50.00
G01 X18.9793 Y-1.8343 F50.00
G01 X18.9944 Y-1.8219 F50.00
G01 X19.0117 Y-1.8126 F50.00
G01 X19.0305 Y-1.8069 F50.00
G01 X19.0500 Y-1.8050 F50.00
G01 X19.0695 Y-1.8069 F50.00
G01 X19.0883 Y-1.8126 F50.00
G01 X19.1056 Y-1.8219 F50.00
G01 X19.1207 Y-1.8343 F50.00
G01 X19.1331 Y-1.8494 F50.00
G01 X19.1424 Y-1.8667 F50.00
G01 X19.1481 Y-1.8855 F50.00
G01 X19.1500 Y-1.9050 F50.00
G01 X19.1481 Y-1.9245 F50.00
G00 Z2.5400
G00 X19.1500 Y-4.4450
G01 F50.00
G01 Z-2.0000
G01 F50.00
G01 X19.1481 Y-4.4645 F50.00
G01 X19.1424 Y-4.4833 F50.00
G01 X19.1331 Y-4.5006 F50.00
G01 X19.1207 Y-4.5157 F50.00
G01 X19.1056 Y-4.5281 F50.00
G01 X19.0883 Y-4.5374 F50.00
G01 X19.0695 Y-4.5431 F50.00
G01 X19.0500 Y-4.5450 F50.00
G01 X19.0305 Y-4.5431 F50.00
G01 X19.0117 Y-4.5374 F50.00
G01 X18.9944 Y-4.5281 F50.00
G01 X18.9793 Y-4.5157 F50.00
G01 X18.9669 Y-4.5006 F50.00
G01 X18.9576 Y-4.4833 F50.00
G01 X18.9519 Y-4.4645 F50.00
G01 X18.9500 Y-4.4450 F50.00
G01 X18.9519 Y-4.4255 F50.00
G01 X18.9576 Y-4.4067 F50.00
G01 X18.9669 Y-4.3894 F50.00
G01 X18.9793 Y-4.3743 F50.00
G01 X18.9944 Y-4.3619 F50.00
G01 X19.0117 Y-4.3526 F50.00
G01 X19.0305 Y-4.3469 F50.00
G01 X19.0500 Y-4.3450 F50.00
G01 X19.0695 Y-4.3469 F50.00
G01 X19.0883 Y-4.3526 F50.00
G01 X19.1056 Y-4.3619 F50.00
G01 X19.1207 Y-4.3743 F50.00
G01 X19.1331 Y-4.3894 F50.00
G01 X19.1424 Y-4.4067 F50.00
G01 X19.1481 Y-4.4255 F50.00
G01 X19.1500 Y-4.4450 F50.00
G01 X19.1481 Y-4.4645 F50.00
G00 Z2.5400
G00 X19.1500 Y-6.9850
G01 F50.00
G01 Z-2.0000
G01 F50.00
G01 X19.1481 Y-7.0045 F50.00
G01 X19.1424 Y-7.0233 F50.00
G01 X19.1331 Y-7.0406 F50.00
G01 X19.1207 Y-7.0557 F50.00
G01 X19.1056 Y-7.0681 F50.00
G01 X19.0883 Y-7.0774 F50.00
G01 X19.0695 Y-7.0831 F50.00
G01 X19.0500 Y-7.0850 F50.00
G01 X19.0305 Y-7.0831 F50.00
G01 X19.0117 Y-7.0774 F50.00
G01 X18.9944 Y-7.0681 F50.00
G01 X18.9793 Y-7.0557 F50.00
G01 X18.9669 Y-7.0406 F50.00
G01 X18.9576 Y-7.0233 F50.00
G01 X18.9519 Y-7.0045 F50.00
G01 X18.9500 Y-6.9850 F50.00
G01 X18.9519 Y-6.9655 F50.00
G01 X18.9576 Y-6.9467 F50.00
G01 X18.9669 Y-6.9294 F50.00
G01 X18.9793 Y-6.9143 F50.00
G01 X18.9944 Y-6.9019 F50.00
G01 X19.0117 Y-6.8926 F50.00
G01 X19.0305 Y-6.8869 F50.00
G01 X19.0500 Y-6.8850 F50.00
G01 X19.0695 Y-6.8869 F50.00
G01 X19.0883 Y-6.8926 F50.00
G01 X19.1056 Y-6.9019 F50.00
G01 X19.1207 Y-6.9143 F50.00
G01 X19.1331 Y-6.9294 F50.00
G01 X19.1424 Y-6.9467 F50.00
G01 X19.1481 Y-6.9655 F50.00
G01 X19.1500 Y-6.9850 F50.00
G01 X19.1481 Y-7.0045 F50.00
G00 Z2.5400
G00 X19.1500 Y-9.5250
G01 F50.00
G01 Z-2.0000
G01 F50.00
G01 X19.1481 Y-9.5445 F50.00
G01 X19.1424 Y-9.5633 F50.00
G01 X19.1331 Y-9.5806 F50.00
G01 X19.1207 Y-9.5957 F50.00
G01 X19.1056 Y-9.6081 F50.00
G01 X19.0883 Y-9.6174 F50.00
G01 X19.0695 Y-9.6231 F50.00
G01 X19.0500 Y-9.6250 F50.00
G01 X19.0305 Y-9.6231 F50.00
G01 X19.0117 Y-9.6174 F50.00
G01 X18.9944 Y-9.6081 F50.00
G01 X18.9793 Y-9.5957 F50.00
G01 X18.9669 Y-9.5806 F50.00
G01 X18.9576 Y-9.5633 F50.00
G01 X18.9519 Y-9.5445 F50.00
G01 X18.9500 Y-9.5250 F50.00
G01 X18.9519 Y-9.5055 F50.00
G01 X18.9576 Y-9.4867 F50.00
G01 X18.9669 Y-9.4694 F50.00
G01 X18.9793 Y-9.4543 F50.00
G01 X18.9944 Y-9.4419 F50.00
G01 X19.0117 Y-9.4326 F50.00
G01 X19.0305 Y-9.4269 F50.00
G01 X19.0500 Y-9.4250 F50.00
G01 X19.0695 Y-9.4269 F50.00
G01 X19.0883 Y-9.4326 F50.00
G01 X19.1056 Y-9.4419 F50.00
G01 X19.1207 Y-9.4543 F50.00
G01 X19.1331 Y-9.4694 F50.00
G01 X19.1424 Y-9.4867 F50.00
G01 X19.1481 Y-9.5055 F50.00
G01 X19.1500 Y-9.5250 F50.00
G01 X19.1481 Y-9.5445 F50.00
G00 Z2.5400
G00 X19.1500 Y-12.0650
G01 F50.00
G01 Z-2.0000
G01 F50.00
G01 X19.1481 Y-12.0845 F50.00
G01 X19.1424 Y-12.1033 F50.00
G01 X19.1331 Y-12.1206 F50.00
G01 X19.1207 Y-12.1357 F50.00
G01 X19.1056 Y-12.1481 F50.00
G01 X19.0883 Y-12.1574 F50.00
G01 X19.0695 Y-12.1631 F50.00
G01 X19.0500 Y-12.1650 F50.00
G01 X19.0305 Y-12.1631 F50.00
G01 X19.0117 Y-12.1574 F50.00
G01 X18.9944 Y-12.1481 F50.00
G01 X18.9793 Y-12.1357 F50.00
G01 X18.9669 Y-12.1206 F50.00
G01 X18.9576 Y-12.1033 F50.00
G01 X18.9519 Y-12.0845 F50.00
G01 X18.9500 Y-12.0650 F50.00
G01 X18.9519 Y-12.0455 F50.00
G01 X18.9576 Y-12.0267 F50.00
G01 X18.9669 Y-12.0094 F50.00
G01 X18.9793 Y-11.9943 F50.00
G01 X18.9944 Y-11.9819 F50.00
G01 X19.0117 Y-11.9726 F50.00
G01 X19.0305 Y-11.9669 F50.00
G01 X19.0500 Y-11.9650 F50.00
G01 X19.0695 Y-11.9669 F50.00
G01 X19.0883 Y-11.9726 F50.00
G01 X19.1056 Y-11.9819 F50.00
G01 X19.1207 Y-11.9943 F50.00
G01 X19.1331 Y-12.0094 F50.00
G01 X19.1424 Y-12.0267 F50.00
G01 X19.1481 Y-12.0455 F50.00
G01 X19.1500 Y-12.0650 F50.00
G01 X19.1481 Y-12.0845 F50.00
G00 Z2.5400
G00 X19.1500 Y-14.6050
G01 F50.00
G01 Z-2.0000
G01 F50.00
G01 X19.1481 Y-14.6245 F50.00
G01 X19.1424 Y-14.6433 F50.00
G01 X19.1331 Y-14.6606 F50.00
G01 X19.1207 Y-14.6757 F50.00
G01 X19.1056 Y-14.6881 F50.00
G01 X19.0883 Y-14.6974 F50.00
G01 X19.0695 Y-14.7031 F50.00
G01 X19.0500 Y-14.7050 F50.00
G01 X19.0305 Y-14.7031 F50.00
G01 X19.0117 Y-14.6974 F50.00
G01 X18.9944 Y-14.6881 F50.00
G01 X18.9793 Y-14.6757 F50.00
G01 X18.9669 Y-14.6606 F50.00
G01 X18.9576 Y-14.6433 F50.00
G01 X18.9519 Y-14.6245 F50.00
G01 X18.9500 Y-14.6050 F50.00
G01 X18.9519 Y-14.5855 F50.00
G01 X18.9576 Y-14.5667 F50.00
G01 X18.9669 Y-14.5494 F50.00
G01 X18.9793 Y-14.5343 F50.00
G01 X18.9944 Y-14.5219 F50.00
G01 X19.0117 Y-14.5126 F50.00
G01 X19.0305 Y-14.5069 F50.00
G01 X19.0500 Y-14.5050 F50.00
G01 X19.0695 Y-14.5069 F50.00
G01 X19.0883 Y-14.5126 F50.00
G01 X19.1056 Y-14.5219 F50.00
G01 X19.1207 Y-14.5343 F50.00
G01 X19.1331 Y-14.5494 F50.00
G01 X19.1424 Y-14.5667 F50.00
G01 X19.1481 Y-14.5855 F50.00
G01 X19.1500 Y-14.6050 F50.00
G01 X19.1481 Y-14.6245 F50.00
G00 Z2.5400
M05
G00 Z2.5400
G00 Z25.00
G00 X0.0 Y0.0

