(G-CODE GENERATED BY FLATCAM v8.908 - www.flatcam.org - Version Date: 2019/02/9)

(Name: pickit3_icsp_adapter-Edge.Cuts.gbr_cutout_cnc)
(Type: G-code from Geometry)
(Units: MM)

(Created on Sunday, 05 May 2019 at 21:09)

(TOOL DIAMETER: 0.8 mm)

(Feedrate: 50.0 mm/min)
(Feedrate_Z: 50.0 mm/min)
(Feedrate rapids 50.0 mm/min)

(Z_Cut: -2.0 mm)
(Z_Move: 2.54 mm)
(Z Toolchange: 25.4 mm)
(X,Y Toolchange: 0.0000, 0.0000 mm)
(Z Start: None mm)
(Z End: 25.0 mm)
(Steps per circle: 64)
(Postprocessor Geometry: grbl_11)

(X range:   -0.4750 ...   27.1450  mm)
(Y range:  -16.9850 ...    0.4750  mm)

(Spindle Speed: 20000 RPM)


G21
G90
G94
G17

G01 F50.00
G00 Z2.5400

M03 S20000
G4 P1.0
G00 X-0.4750 Y-7.6800
G01 F50.00
G01 Z-2.0000
G01 F50.00
G01 X-0.4750 Y-3.8100 F50.00
G01 X-0.4739 Y-3.7792 F50.00
G01 X-0.4721 Y-3.7568 F50.00
G01 X-0.4689 Y-3.7346 F50.00
G01 X-0.4631 Y-3.7043 F50.00
G01 X-0.4552 Y-3.6745 F50.00
G01 X-0.4484 Y-3.6531 F50.00
G01 X-0.4372 Y-3.6244 F50.00
G01 X-0.4280 Y-3.6039 F50.00
G01 X-0.4177 Y-3.5840 F50.00
G01 X-0.4022 Y-3.5573 F50.00
G01 X-0.3898 Y-3.5386 F50.00
G01 X-0.3714 Y-3.5138 F50.00
G01 X-0.3513 Y-3.4904 F50.00
G01 X-0.3359 Y-3.4741 F50.00
G01 X-0.3196 Y-3.4587 F50.00
G01 X-0.2962 Y-3.4386 F50.00
G01 X-0.2714 Y-3.4202 F50.00
G01 X-0.2527 Y-3.4078 F50.00
G01 X-0.2260 Y-3.3923 F50.00
G01 X-0.2061 Y-3.3820 F50.00
G01 X-0.1856 Y-3.3728 F50.00
G01 X-0.1569 Y-3.3616 F50.00
G01 X-0.1355 Y-3.3548 F50.00
G01 X-0.1057 Y-3.3469 F50.00
G01 X-0.0837 Y-3.3425 F50.00
G01 X-0.0532 Y-3.3379 F50.00
G01 X-0.0308 Y-3.3361 F50.00
G01 X0.0000 Y-3.3350 F50.00
G01 X9.9632 Y-3.3350 F50.00
G01 X12.9600 Y-0.3382 F50.00
G00 Z2.5400
G00 X13.9100 Y0.4711
G01 F50.00
G01 Z-2.0000
G01 F50.00
G01 X13.9392 Y0.4739 F50.00
G01 X13.9700 Y0.4750 F50.00
G01 X24.7804 Y0.4748 F50.00
G01 X25.0049 Y0.4623 F50.00
G01 X25.0273 Y0.4604 F50.00
G01 X25.0579 Y0.4563 F50.00
G01 X25.2685 Y0.4206 F50.00
G01 X25.2905 Y0.4162 F50.00
G01 X25.3204 Y0.4087 F50.00
G01 X25.5257 Y0.3496 F50.00
G01 X25.5471 Y0.3428 F50.00
G01 X25.5760 Y0.3320 F50.00
G01 X25.7733 Y0.2502 F50.00
G01 X25.8014 Y0.2374 F50.00
G01 X25.8213 Y0.2271 F50.00
G01 X26.0083 Y0.1238 F50.00
G01 X26.0276 Y0.1124 F50.00
G01 X26.0534 Y0.0954 F50.00
G01 X26.2276 Y-0.0282 F50.00
G01 X26.2521 Y-0.0469 F50.00
G01 X26.2693 Y-0.0614 F50.00
G01 X26.4286 Y-0.2038 F50.00
G01 X26.4449 Y-0.2192 F50.00
G01 X26.4662 Y-0.2414 F50.00
G01 X26.6086 Y-0.4007 F50.00
G01 X26.6231 Y-0.4179 F50.00
G01 X26.6418 Y-0.4424 F50.00
G01 X26.7654 Y-0.6166 F50.00
G01 X26.7779 Y-0.6352 F50.00
G01 X26.7938 Y-0.6617 F50.00
G01 X26.8971 Y-0.8487 F50.00
G01 X26.9111 Y-0.8762 F50.00
G01 X26.9202 Y-0.8967 F50.00
G01 X27.0020 Y-1.0940 F50.00
G01 X27.0128 Y-1.1229 F50.00
G01 X27.0196 Y-1.1443 F50.00
G01 X27.0787 Y-1.3496 F50.00
G01 X27.0885 Y-1.3905 F50.00
G01 X27.1263 Y-1.6121 F50.00
G01 X27.1315 Y-1.6539 F50.00
G01 X27.1448 Y-1.8896 F50.00
G01 X27.1443 Y-1.9306 F50.00
G01 X27.1415 Y-1.9617 F50.00
G01 X27.1385 Y-1.9836 F50.00
G01 X27.1341 Y-2.0061 F50.00
G01 X27.1257 Y-2.0390 F50.00
G01 X27.1171 Y-2.0652 F50.00
G01 X27.1093 Y-2.0858 F50.00
G01 X27.0915 Y-2.1240 F50.00
G01 X26.4545 Y-3.2829 F50.00
G01 X25.9648 Y-4.4707 F50.00
G01 X25.6106 Y-5.7056 F50.00
G01 X25.3964 Y-6.9723 F50.00
G01 X25.3568 Y-7.6800 F50.00
G00 Z2.5400
G00 X25.3456 Y-8.6300
G01 F50.00
G01 Z-2.0000
G01 F50.00
G01 X25.3964 Y-9.5377 F50.00
G01 X25.6106 Y-10.8044 F50.00
G01 X25.9648 Y-12.0393 F50.00
G01 X26.4545 Y-13.2271 F50.00
G01 X27.0921 Y-14.3872 F50.00
G01 X27.1117 Y-14.4301 F50.00
G01 X27.1265 Y-14.4735 F50.00
G01 X27.1352 Y-14.5092 F50.00
G01 X27.1413 Y-14.5455 F50.00
G01 X27.1443 Y-14.5784 F50.00
G01 X27.1450 Y-14.6037 F50.00
G01 X27.1449 Y-14.6163 F50.00
G01 X27.1448 Y-14.6205 F50.00
G01 X27.1315 Y-14.8561 F50.00
G01 X27.1263 Y-14.8979 F50.00
G01 X27.0885 Y-15.1195 F50.00
G01 X27.0787 Y-15.1604 F50.00
G01 X27.0196 Y-15.3657 F50.00
G01 X27.0128 Y-15.3871 F50.00
G01 X27.0020 Y-15.4160 F50.00
G01 X26.9202 Y-15.6133 F50.00
G01 X26.9111 Y-15.6338 F50.00
G01 X26.8971 Y-15.6613 F50.00
G01 X26.7938 Y-15.8483 F50.00
G01 X26.7824 Y-15.8676 F50.00
G01 X26.7654 Y-15.8934 F50.00
G01 X26.6418 Y-16.0676 F50.00
G01 X26.6231 Y-16.0921 F50.00
G01 X26.6086 Y-16.1093 F50.00
G01 X26.4662 Y-16.2686 F50.00
G01 X26.4449 Y-16.2908 F50.00
G01 X26.4286 Y-16.3062 F50.00
G01 X26.2693 Y-16.4486 F50.00
G01 X26.2521 Y-16.4631 F50.00
G01 X26.2276 Y-16.4818 F50.00
G01 X26.0534 Y-16.6054 F50.00
G01 X26.0348 Y-16.6179 F50.00
G01 X26.0083 Y-16.6338 F50.00
G01 X25.8213 Y-16.7371 F50.00
G01 X25.8014 Y-16.7474 F50.00
G01 X25.7733 Y-16.7602 F50.00
G01 X25.5760 Y-16.8420 F50.00
G01 X25.5471 Y-16.8528 F50.00
G01 X25.5257 Y-16.8596 F50.00
G01 X25.3204 Y-16.9187 F50.00
G01 X25.2905 Y-16.9262 F50.00
G01 X25.2685 Y-16.9306 F50.00
G01 X25.0579 Y-16.9663 F50.00
G01 X25.0273 Y-16.9704 F50.00
G01 X25.0049 Y-16.9723 F50.00
G01 X24.7804 Y-16.9848 F50.00
G01 X13.9700 Y-16.9850 F50.00
G01 X13.9392 Y-16.9839 F50.00
G01 X13.9100 Y-16.9811 F50.00
G00 Z2.5400
G00 X12.9600 Y-16.1718
G01 F50.00
G01 Z-2.0000
G01 F50.00
G01 X9.9632 Y-13.1750 F50.00
G01 X0.0000 Y-13.1750 F50.00
G01 X-0.0224 Y-13.1744 F50.00
G01 X-0.0532 Y-13.1721 F50.00
G01 X-0.0837 Y-13.1675 F50.00
G01 X-0.1057 Y-13.1631 F50.00
G01 X-0.1355 Y-13.1552 F50.00
G01 X-0.1569 Y-13.1484 F50.00
G01 X-0.1856 Y-13.1372 F50.00
G01 X-0.2061 Y-13.1280 F50.00
G01 X-0.2334 Y-13.1136 F50.00
G01 X-0.2527 Y-13.1022 F50.00
G01 X-0.2714 Y-13.0898 F50.00
G01 X-0.2962 Y-13.0714 F50.00
G01 X-0.3133 Y-13.0569 F50.00
G01 X-0.3359 Y-13.0359 F50.00
G01 X-0.3513 Y-13.0196 F50.00
G01 X-0.3714 Y-12.9962 F50.00
G01 X-0.3898 Y-12.9714 F50.00
G01 X-0.4022 Y-12.9527 F50.00
G01 X-0.4177 Y-12.9260 F50.00
G01 X-0.4280 Y-12.9061 F50.00
G01 X-0.4372 Y-12.8856 F50.00
G01 X-0.4484 Y-12.8569 F50.00
G01 X-0.4552 Y-12.8355 F50.00
G01 X-0.4631 Y-12.8057 F50.00
G01 X-0.4675 Y-12.7837 F50.00
G01 X-0.4721 Y-12.7532 F50.00
G01 X-0.4744 Y-12.7224 F50.00
G00 Z2.5400
G00 X-0.4744 Y-12.7224
G01 F50.00
G01 Z-2.0000
G01 F50.00
G01 X-0.4750 Y-12.7000 F50.00
G01 X-0.4750 Y-8.6300 F50.00
G00 Z2.5400
M05
G00 Z2.5400
G00 Z25.00
G00 X0.0 Y0.0

